!!!COM: Palestrina, Giovanni Perluigi da
!!!OPR: In majoribus duplicibus
!!!OTL: Gloria
**kern	**kern	**kern	**kern
*Ibass	*Itenor	*Icalto	*Icant
!Bassus	!Tenor	!Altus	!Cantus
*clefF4	*clefGv2	*clefG2	*clefG2
*k[]	*k[]	*k[]	*k[]
*?:X	*?:X	*?:X	*?:X
*M4/2	*M4/2	*M4/2	*M4/2
=1	=1	=1	=1
0r	1r	0d	0r
.	[1G	.	.
=2	=2	=2	=2
0r	1G]	1g	0r
.	1c	1g	.
=3	=3	=3	=3
0r	1c	2.a	0r
.	.	4g	.
.	2.d	2f	.
.	.	2e	.
.	4c	.	.
=4	=4	=4	=4
0G	2B	2d	1r
.	2e	1c	.
.	1d	.	[1g
.	.	2B	.
=5	=5	=5	=5
1c	4c	2e	1g]
.	4d	.	.
.	4e	4c	.
.	4f	4d	.
2.c	2g	4e	1cc
.	.	4f	.
.	[2e	2g	.
4B	.	.	.
=6	=6	=6	=6
2.A	2e]	2a	1cc
.	1a	1cc	.
4G	.	.	.
2F#	.	.	1dd
2G	[2g	2b	.
=7	=7	=7	=7
1D	4g]	1a	1dd
.	8f#	.	.
.	8e	.	.
.	2f#	.	.
1G	2.g	1b	1dd
.	4f	.	.
=8	=8	=8	=8
2.C	1.e	1g	1cc
4D	.	.	.
4E	.	2.g	2.b
4F	.	.	.
4G	2d	.	.
4A	.	8f	4cc
.	.	8e	.
=9	=9	=9	=9
2B	2.g	2d	2dd
1c	.	2e	1cc
.	4f	.	.
.	2e	1g	.
2G	[2d	.	[2b
=10	=10	=10	=10
1A	2d]	2.e	2b]
.	2c	.	2a
.	.	4f#	.
1G	2d	1g	1b
.	[2g	.	.
=11	=11	=11	=11
1c	2g]	0r	0r
.	2.a	.	.
[1d	.	.	.
.	4g	.	.
.	4f	.	.
.	4e	.	.
=12	=12	=12	=12
2d]	2f	2r	0r
2c	2e	2g	.
2B	2d	4g	.
.	.	4f	.
2G	[2g	4e	.
.	.	4d	.
=13	=13	=13	=13
1A	4g]	2c	1cc
.	4f	.	.
.	4f	1cc	.
.	4e	.	.
1G	[1g	.	[1dd
.	.	4b	.
.	.	4a	.
=14	=14	=14	=14
0r	2g]	2b	2dd]
.	2c	2.a	2cc
.	1e	.	2b
.	.	4g	.
.	.	[2g	2g
=15	=15	=15	=15
1D	1d	2g]	1a
.	.	2f#	.
1E	1G	2g	[1g
.	.	[2e	.
=16	=16	=16	=16
1G	1B	2e]	1g]
.	.	1d	.
1A	1c	.	1r
.	.	[2c	.
=17	=17	=17	=17
1G	1d	2c]	0r
.	.	4B	.
.	.	4A	.
1E	1e	2B	.
.	.	4c	.
.	.	4B	.
=18	=18	=18	=18
1F	0d	4A	1a
.	.	4G	.
.	.	2A	.
[1G	.	2G	1b
.	.	2g	.
=19	=19	=19	=19
1G]	2r	1b	1dd
.	2g	.	.
1r	4c	1cc	1ee
.	4d	.	.
.	4e	.	.
.	4f	.	.
=20	=20	=20	=20
0r	4g	1b	1dd
.	4a	.	.
.	2.g	.	.
.	.	2.e	1b
.	4f	.	.
.	4e	.	.
.	4d	4f	.
=21	=21	=21	=21
1r	2e	2.g	1cc
.	2e	.	.
.	.	4a	.
1G	1d	4b	[1dd
.	.	4cc	.
.	.	[2b	.
=22	=22	=22	=22
1B	0r	4b]	2dd]
.	.	4a	.
.	.	1g	4cc
.	.	.	4b
1c	.	.	[1a
.	.	4f#	.
.	.	4e	.
=23	=23	=23	=23
2.d	1r	1f#	1a]
4c	.	.	.
4B	1G	[1g	1b
4A	.	.	.
[2G	.	.	.
=24	=24	=24	=24
4G]	1B	1g]	1r
4F	.	.	.
4E	.	.	.
4D	.	.	.
2E	1c	1r	1g
2C	.	.	.
=25	=25	=25	=25
1G	1d	0g	1b
1E	2e	.	1cc
.	[2g	.	.
=26	=26	=26	=26
1D	2g]	1a	1.dd
.	4f	.	.
.	4e	.	.
1r	4f	2d	.
.	4g	.	.
.	[2a	2f	2cc
=27	=27	=27	=27
0r	4a]	1g	2b
.	4g	.	.
.	1g	.	4a
.	.	.	4g
.	.	1d	1a
.	2f#	.	.
=28	=28	=28	=28
0r	1g	2r	1b
.	.	1e	.
.	2r	.	1g
.	[2e	[2c#	.
=29	=29	=29	=29
1A	2e]	4c#]	0r
.	.	4d	.
.	1A	2e	.
1D	.	2f#	.
.	[2B	2f#	.
=30	=30	=30	=30
1E	2B]	4g	1ee
.	.	4f#	.
.	1c	4e	.
.	.	4d	.
1F	.	4c	1a
.	.	4B	.
.	[2d	2A	.
=31	=31	=31	=31
0G	2d]	2G	2.b
.	2.g	2d	.
.	.	.	4cc
.	.	1g	2dd
.	4f	.	.
.	4e	.	[2ee
.	4d	.	.
=32	=32	=32	=32
0A	2c	2e	2ee]
.	2d	2a	1dd
.	1e	[1a	.
.	.	.	2cc#
=33	=33	=33	=33
1D	1f#	1a]	0dd
1G	1g	2r	.
.	.	2b	.
=34	=34	=34	=34
1A	2e	2cc	0r
.	2f	2a	.
[1c	[1e	4g	.
.	.	4f	.
.	.	4e	.
.	.	4d	.
=35	=35	=35	=35
2c]	2e]	2c	1g
2B	2d	2d	.
2A	2c	2e	1a
2D	2d	2f	.
=36	=36	=36	=36
2E	1c	2g	1.cc
2F	.	4f	.
.	.	4e	.
1G	2r	1d	.
.	2G	.	2b
=37	=37	=37	=37
0r	2A	2c	2a
.	2B	2B	2d
.	2c	1A	2e
.	2A	.	2f
=38	=38	=38	=38
1r	2B	0r	2g
.	2.c	.	2.a
1G	.	.	.
.	4B	.	4g
.	2B	.	[2g
=39	=39	=39	=39
1.c	1A	1r	2g]
.	.	.	2f#
.	1G	1d	2.g
2B	.	.	.
.	.	.	4f
=40	=40	=40	=40
1c	1r	1.g	1e
1d	2r	.	1r
.	[2d	2f#	.
=41	=41	=41	=41
2B	2d]	1g	1g
2c	1g	.	.
1A	.	1a	[1cc
.	2f#	.	.
=42	=42	=42	=42
1G	1g	1d	2cc]
.	.	.	2b
1r	2.a	2.f	1cc
.	4g	4g	.
=43	=43	=43	=43
0r	2f	2a	1dd
.	2g	2b	.
.	2c	2.cc	2.ee
.	4A	.	.
.	4B	4b	4dd
=44	=44	=44	=44
0r	4c	2a	2cc
.	4d	.	.
.	2.e	2.g	2b
.	.	.	2cc
.	4f	4a	.
.	2d	2f	[2dd
=45	=45	=45	=45
0r	1e	1g	4dd]
.	.	.	8cc#
.	.	.	8b
.	.	.	2cc#
.	2.d	2r	[1dd
.	.	[2a	.
.	4e	.	.
=46	=46	=46	=46
1d	1f#	2a]	1dd]
.	.	1d	.
1G	1g	.	1r
.	.	[2e	.
=47	=47	=47	=47
1A	1c	4e]	1r
.	.	4d	.
.	.	1c	.
1G	1d	.	1dd
.	.	2B	.
=48	=48	=48	=48
1r	1e	2c	1g
.	.	1g	.
1D	2.d	.	1a
.	.	2f	.
.	4c	.	.
=49	=49	=49	=49
2.E	2B	1e	1g
.	1c	.	.
4F	.	.	.
2G	.	2r	1d
2G	2B	[2d	.
=50	=50	=50	=50
2.F	2.A	2d]	1.f
.	.	2c	.
4E	4G	.	.
2D	4A	2d	.
.	4B	.	.
2C	2c	2e	2e
=51	=51	=51	=51
0D	2B	0d	2f
.	4A	.	1g
.	4G	.	.
.	1A	.	.
.	.	.	2f
=52	=52	=52	=52
1C	1c	0e	0g
1c	2r	.	.
.	2g	.	.
=53	=53	=53	=53
2B	2g	1r	1r
2A	2f	.	.
1c	1e	2r	1cc
.	.	2g	.
=54	=54	=54	=54
1d	1d	2g	2b
.	.	2f	2a
1r	2r	1e	1cc
.	[2g	.	.
=55	=55	=55	=55
0r	2g]	1d	1dd
.	2f	.	.
.	2.e	[1g	[1ee
.	4d	.	.
=56	=56	=56	=56
1r	2c	2g]	2ee]
.	2d	2f	2dd
2r	1A	2.e	2.cc
[2e	.	.	.
.	.	4d	4b
=57	=57	=57	=57
2e]	0r	2c	2cc
2d	.	2B	2dd
2.c	.	2.e	1g
4B	.	4d	.
=58	=58	=58	=58
2c	1r	2e	1a
2d	.	2f#	.
1G	2r	1g	1b
.	[2d	.	.
=59	=59	=59	=59
1D	2d]	2.f	2r
.	2f	.	1a
.	.	8e	.
.	.	8d	.
1A	1e	2c	.
.	.	2A	2cc
=60	=60	=60	=60
2D	1.f	2A	1dd
4D	.	1a	.
4E	.	.	.
4F	.	.	[1cc
4G	.	.	.
2A	4e	2a	.
.	4d	.	.
=61	=61	=61	=61
1.E	1e	2g	2cc]
.	.	1g	4b
.	.	.	4a
.	2e	.	2g
2F	4d	4f	[2a
.	4c	4e	.
=62	=62	=62	=62
2G	2B	2d	2a]
2C	2c	2e	1g
1D	2A	[1d	.
.	2A	.	2f#
=63	=63	=63	=63
1G	1G	2d]	1g
.	.	2g	.
1r	1r	2f	1dd
.	.	2g	.
=64	=64	=64	=64
0r	0r	2a	2cc
.	.	2f	2dd
.	.	2g	2ee
.	.	2a	2cc
=65	=65	=65	=65
0r	0r	4b	2dd
.	.	4g	.
.	.	1cc	2ee
.	.	.	[1gg
.	.	4b	.
.	.	4a	.
=66	=66	=66	=66
0r	0r	2g	2gg]
.	.	2.a	2ff
.	.	.	2.ee
.	.	4b	.
.	.	[2cc	.
.	.	.	8dd
.	.	.	8cc
=67	=67	=67	=67
0r	0r	2cc]	1dd
.	.	2b	.
.	.	1cc	1cc
=68	=68	=68	=68
0G	0g	0b	0dd
=69	=69	=69	=69
0F	2a	2.cc	1ff
.	2.f	.	.
.	.	4b	.
.	.	4a	[1cc
.	4e	4g	.
.	4c	[2a	.
.	4d	.	.
=70	=70	=70	=70
1G	2e	2a]	2cc]
.	4d	1g	2b
.	4c	.	.
1D	1d	.	1a
.	.	2f#	.
=71	=71	=71	=71
2r	1B	1g	1g
1G	.	.	.
.	2r	1d	1r
2F	[2d	.	.
=72	=72	=72	=72
2G	2d]	0r	0r
2A	2c	.	.
2F	2d	.	.
[2G	[2e	.	.
=73	=73	=73	=73
4G]	4e]	0r	1dd
4F	4d	.	.
4F	1d	.	.
8E	.	.	.
8D	.	.	.
1E	.	.	1gg
.	2c#	.	.
=74	=74	=74	=74
1D	1d	2r	1ff
.	.	2a	.
1r	1r	2b	2.gg
.	.	[2cc	.
.	.	.	4ff
=75	=75	=75	=75
0r	1r	4cc]	4ee
.	.	4b	4dd
.	.	2.a	2.ff
.	1d	.	.
.	.	4g	4ee
.	.	2f	[2dd
=76	=76	=76	=76
1r	1g	1e	2dd]
.	.	.	2cc#
1D	1f	[1d	2dd
.	.	.	2a
=77	=77	=77	=77
1G	1g	1d]	2b
.	.	.	2.dd
1F	1a	2r	.
.	.	.	4cc
.	.	2f	[2cc
=78	=78	=78	=78
1G	1g	2d	2cc]
.	.	2.e	2b
1A	4c	.	2r
.	4d	4d	.
.	4e	[2c	[2ee
.	4f	.	.
=79	=79	=79	=79
1G	1g	2c]	2ee]
.	.	2B	2dd
1r	2r	2c	2cc
.	[2e	[2g	2b
=80	=80	=80	=80
0r	2e]	2g]	2cc
.	2d	2f	2dd
.	2c	2e	1g
.	2B	2d	.
=81	=81	=81	=81
0r	2c	2e	1a
.	2d	2f#	.
.	4G	2g	2b
.	4A	.	.
.	4B	4d	[2dd
.	4c	4e	.
=82	=82	=82	=82
2r	4d	4f	2dd]
.	4e	4g	.
1A	2f	4a	2cc
.	.	4b	.
.	1e	2cc	2a
2G	.	2b	2b
=83	=83	=83	=83
1F	2r	2.a	2cc
.	1a	.	2dd
.	.	4b	.
1E	.	2cc	1ee
.	2g	2b	.
=84	=84	=84	=84
0F	1.f	0a	2dd
.	.	.	2cc
.	.	.	4dd
.	.	.	4cc
.	2e	.	[2cc
=85	=85	=85	=85
0G	2.d	[0g	2cc]
.	.	.	4b
.	4c	.	4a
.	1d	.	1b
=86	=86	=86	=86
0C	0c	0g]	0cc
=87	=87	=87	=87
0r	0r	1d	0r
.	.	1f	.
=88	=88	=88	=88
0r	0r	1g	1dd
.	.	1d	1ff
=89	=89	=89	=89
0r	1r	2e	1gg
.	.	2.g	.
.	2r	.	1dd
.	.	8f	.
.	.	8e	.
.	2d	4f	.
.	.	4g	.
=90	=90	=90	=90
0r	1f	4a	1.cc
.	.	4b-	.
.	.	2.a	.
.	1g	.	.
.	.	4g	.
.	.	[2g	2b
=91	=91	=91	=91
0r	1d	2g]	2.a
.	.	2f	.
.	.	.	4b
.	2.c	2e	4cc
.	.	.	4dd
.	.	2g	2ee
.	4B	.	.
=92	=92	=92	=92
0r	2A	2a	2cc
.	2G	2b	2dd
.	1c	4cc	4ee
.	.	4b	4dd
.	.	4a	4cc
.	.	4g	4b
=93	=93	=93	=93
0r	[0d	2f#	2a
.	.	1g	2g
.	.	.	1a
.	.	2f#	.
=94	=94	=94	=94
1G	0d]	0g	1b
1B	.	.	2r
.	.	.	[2dd
=95	=95	=95	=95
1c	1g	1e	2dd]
.	.	.	2.cc
1G	1g	2.d	.
.	.	.	4b
.	.	.	2b
.	.	4e	.
=96	=96	=96	=96
2.F	2c	4f	2a
.	.	4g	.
.	2c	2a	2ff
4E	.	.	.
2D	2d	2f	2ff
2C	2e	2g	2ee
=97	=97	=97	=97
1F	1f	2a	2dd
.	.	2a	1cc
1G	1d	2.g	.
.	.	.	2b
.	.	4f	.
=98	=98	=98	=98
1A	1r	2e	0cc
.	.	2a	.
[1c	1e	1g	.
=99	=99	=99	=99
2c]	1g	0r	0r
2B	.	.	.
1A	2f	.	.
.	[2e	.	.
=100	=100	=100	=100
2G	4e]	0r	1r
.	4d	.	.
2F	1d	.	.
[1E	.	.	1ee
.	2c	.	.
=101	=101	=101	=101
1E]	4B	1r	1.gg
.	4A	.	.
.	4B	.	.
.	4c	.	.
4D	1d	1a	.
4E	.	.	.
4F	.	.	2ff
4G	.	.	.
=102	=102	=102	=102
4A	4c	1.cc	1ee
4B	4d	.	.
2c	4e	.	.
.	4f	.	.
1G	2g	.	2.dd
.	2d	2b	.
.	.	.	4ee
=103	=103	=103	=103
0r	2d	1a	2ff
.	2A	.	1ee
.	2c	2g	.
.	2d	[2f	[2dd
=104	=104	=104	=104
2r	1A	4f]	4dd]
.	.	4e	8cc
.	.	.	8b
2A	.	1a	4cc
.	.	.	4dd
1c	1r	.	4ee
.	.	.	4ff
.	.	[2g	[2ee
=105	=105	=105	=105
1d	0r	2g]	4ee]
.	.	.	4dd
.	.	2f	1dd
1A	.	1e	.
.	.	.	2cc#
=106	=106	=106	=106
2F#	2r	0d	4dd
.	.	.	4cc
2G	2d	.	4b
.	.	.	8a
.	.	.	8g
1D	1f	.	1a
=107	=107	=107	=107
1G	1g	2r	1b
.	.	2d	.
1d	2r	1f	1a
.	[2d	.	.
=108	=108	=108	=108
2B	2d]	0g	1r
2c	1c	.	.
2.G	.	.	1dd
.	2B	.	.
8F	.	.	.
8E	.	.	.
=109	=109	=109	=109
1D	1d	1a	1ff
1C	2.e	1cc	1gg
.	4f	.	.
=110	=110	=110	=110
0r	4g	2b	1dd
.	4f	.	.
.	4d	4a	.
.	4e	4g	.
.	4f	4a	[1cc
.	4g	4g	.
.	4a	4f	.
.	4g	4e	.
=111	=111	=111	=111
0r	2f	2a	2cc]
.	2g	1g	2b
.	1d	.	1a
.	.	2f#	.
=112	=112	=112	=112
1r	1G	1g	1g
1G	2r	1b	1dd
.	[2g	.	.
=113	=113	=113	=113
1c	2g]	1.cc	1ee
.	2.a	.	.
[1d	.	.	[1ff
.	4g	.	.
.	4f	4b	.
.	4e	4a	.
=114	=114	=114	=114
2d]	2f	2b	2ff]
2c	2g	2cc	2ee
2c	[1g	1cc	2ee
[2c	.	.	[2ee
=115	=115	=115	=115
2c]	0g]	1r	2ee]
2B	.	.	2dd
1c	.	2r	1ee
.	.	[2g	.
=116	=116	=116	=116
1A	2r	2g]	1cc
.	1c	2f#	.
1G	.	2g	2ee
.	2B	2g	2dd
=117	=117	=117	=117
0F	2c	1a	2.ff
.	2A	.	.
.	.	.	4ee
.	2.f	1a	2dd
.	.	.	2cc
.	4e	.	.
=118	=118	=118	=118
0G	2d	0g	2b
.	2c	.	1cc
.	1d	.	.
.	.	.	2b
=119	=119	=119	=119
1C	0c	1e	1cc
2r	.	1g	[1ee
[2c	.	.	.
=120	=120	=120	=120
2c]	0r	1a	2ee]
4B	.	.	4dd
4A	.	.	4cc
2B	.	1g	2dd
2c	.	.	2ee
=121	=121	=121	=121
1F	2r	2.f	1a
.	1c	.	.
.	.	4e	.
1G	.	1d	2g
.	4B	.	[2dd
.	4A	.	.
=122	=122	=122	=122
0r	2B	1e	2dd]
.	2.c	.	1ee
.	.	1a	.
.	4A	.	.
.	2d	.	[2ff
=123	=123	=123	=123
1r	1c	1.cc	2ff]
.	.	.	2ee
1G	1r	.	1dd
.	.	2b	.
=124	=124	=124	=124
1A	1c	1a	1cc
[1c	1e	2.g	1cc
.	.	4f	.
=125	=125	=125	=125
2c]	1.g	2e	2r
2B	.	2d	2dd
1A	.	2c	2ee
.	2f	[2cc	2cc
=126	=126	=126	=126
1G	2e	4cc]	1gg
.	.	8b	.
.	.	8a	.
.	2d	2b	.
1c	4e	2.cc	1ee
.	4f	.	.
.	[2g	.	.
.	.	4b	.
=127	=127	=127	=127
0d	2g]	1a	0dd
.	4f#	.	.
.	4e	.	.
.	1f#	1a	.
=128	=128	=128	=128
1c	1g	1.cc	1ee
1G	1r	.	[1gg
.	.	2b	.
=129	=129	=129	=129
1d	1r	2.a	2gg]
.	.	.	2ff
.	.	4b	.
1c	2r	2cc	2.ee
.	2c	[2g	.
.	.	.	4ff
=130	=130	=130	=130
0r	2G	2g]	2gg
.	2B-	1f	1dd
.	2.A	.	.
.	.	2e	[2cc
.	4G	.	.
=131	=131	=131	=131
0r	2F	2.d	2cc]
.	2G	.	2b-
.	.	4e	.
.	[1d	2f	2a
.	.	[2g	2g
=132	=132	=132	=132
1r	1d]	2g]	1a
.	.	2f#	.
2r	1r	4g	[1g
.	.	4f	.
[2c	.	4e	.
.	.	4d	.
=133	=133	=133	=133
2c]	2r	2e	1g]
2B	1g	2d	.
1A	.	1c	2r
.	2f	.	[2cc
=134	=134	=134	=134
1c	1e	2r	2cc]
.	.	1g	2b
1d	2r	.	1a
.	[2a	2f	.
=135	=135	=135	=135
1e	2a]	2e	1cc
.	1g	2g	.
1d	.	2a	1dd
.	2f	2b	.
=136	=136	=136	=136
1c	4g	1cc	1ee
.	4a	.	.
.	2.g	.	.
1d	.	1a	1dd
.	4f	.	.
.	4f	.	.
.	8e	.	.
.	8d	.	.
=137	=137	=137	=137
0r	2e	2r	1cc
.	2e	2g	.
.	1d	2g	2dd
.	.	2g	2dd
=138	=138	=138	=138
0r	0r	2b-	2dd
.	.	4a	2cc
.	.	4g	.
.	.	2a	2ff
.	.	[2g	[2ee
=139	=139	=139	=139
0r	1d	4g]	4ee]
.	.	4f	4dd
.	.	4f	1dd
.	.	8e	.
.	.	8d	.
.	1g	2e	.
.	.	2e	2cc#
=140	=140	=140	=140
1D	1f	2d	0dd
.	.	2a	.
1G	1g	1b	.
=141	=141	=141	=141
1F	1a	1cc	1r
1G	2.g	1b	1dd
.	4f	.	.
=142	=142	=142	=142
1C	2e	1cc	1gg
.	2e	.	.
1D	1d	2a	1ff#
.	.	2a	.
=143	=143	=143	=143
2.E	2G	2g	2gg
.	1g	2b	1ee
4D	.	.	.
2C	.	2cc	.
2D	2f	2a	[2dd
=144	=144	=144	=144
1A	1e	1a	2dd]
.	.	.	2cc#
2.D	[1f	[1a	1dd
4E	.	.	.
=145	=145	=145	=145
2F	0f]	0a]	[0cc
2G	.	.	.
2A	.	.	.
2B	.	.	.
=146	=146	=146	=146
1c	1e	0g	1cc]
1G	1d	.	1b
=147	=147	=147	=147
2.F	1f	2.cc	1a
4G	.	4b	.
2A	2.e	2a	2.cc
2E	.	2g	.
.	4d	.	4b
=148	=148	=148	=148
2F	2c	2f	2a
2G	2B	2e	1g
1D	1A	[1d	.
.	.	.	2f#
=149	=149	=149	=149
[0G	2B	1d]	0g
.	2G	.	.
.	2.B	2r	.
.	.	2G	.
.	4c	.	.
=150	=150	=150	=150
1G]	2d	1B	2r
.	2G	.	2d
2r	2F	1c	1f
2c	2A	.	.
=151	=151	=151	=151
2c	1G	2.d	1g
2B	.	.	.
.	.	4e	.
4A	1r	4f	2.a
4G	.	4g	.
4F	.	[2a	.
4G	.	.	4b
=152	=152	=152	=152
4A	0r	2a]	4cc
4B	.	.	4dd
1c	.	4g	1ee
.	.	4f	.
.	.	2g	.
2d	.	2f	[2dd
=153	=153	=153	=153
1A	1r	1e	2dd]
.	.	.	2cc#
1D	2r	2d	2dd
.	2d	2a	2dd
=154	=154	=154	=154
0r	4c	2.cc	2.ee
.	4B	.	.
.	4A	.	.
.	4B	4b	4dd
.	4c	2a	2cc
.	4d	.	.
.	4e	2g	2b
.	8d	.	.
.	8e	.	.
=155	=155	=155	=155
0r	2f	2a	2a
.	2e	2b	2g
.	1A	2cc	2a
.	.	[2a	[2cc
=156	=156	=156	=156
0r	2c	4a]	4cc]
.	.	4g	4b
.	2d	2f	2a
.	1G	2e	2g
.	.	[2d	2f
=157	=157	=157	=157
1r	1A	2d]	1e
.	.	2c#	.
2r	2r	2d	1d
2d	2f	2a	.
=158	=158	=158	=158
2.e	2.g	2.cc	1r
4d	4f	4b	.
2c	2e	2a	2r
2B	2d	2g	2dd
=159	=159	=159	=159
2A	2e	2a	2cc
2G	2g	2b	2b
2A	2f	2cc	1a
[2c	[2e	[2a	.
=160	=160	=160	=160
4c]	4e]	4a]	0r
4B	4d	4g	.
2A	2c	2f	.
2G	2B	2e	.
2F	2A	[2d	.
=161	=161	=161	=161
1E	2G	2d]	2r
.	2g	2c#	2ee
1D	2.a	2d	2.ff
.	.	2d	.
.	4g	.	4ee
=162	=162	=162	=162
2r	2f	2.a	2dd
2A	2e	.	2cc
.	.	4g	.
2D	2d	2f	2dd
2A	2c	2e	2ee
=163	=163	=163	=163
1D	2d	2d	2ff
.	2.f	1a	2.dd
2F	.	.	.
.	4e	.	4cc
2G	2d	2g	2b
=164	=164	=164	=164
2C	2c	2e	2a
2C	2c	2e	1g
1D	1A	1d	.
.	.	.	2f#
=165	=165	=165	=165
0G	0G	0d	0g
==	==	==	==
*-	*-	*-	*-
!!!CDT: 1525/^1526/-1594/2/2
!!!OCY: Italia
!!!AGN: Mass (Paraphrase)
!!!AST: renaissance, vocal
!!!ASW: Gregorian Mass
!!!PWK: Masses, Book 7
!!!RNB: Cadence finals: E,C,G,D,F
!!!YOR: Le Opere Complete, v. 23, p. 149
!!!YOO: Rome, Italy: Fratelli Scalera
!!!END: 1992//
!!!EED: John Miller
!!!YEC: Copyright 2000, John Miller
!!!YEN: United States of America
!!!YEM: Rights to all derivative electronic formats reserved.
!!!YEM: Refer to licensing agreement for further details.
!!!YEM: This file must be accompanied by the licensing agreement.
!!!YEM: A copy of the licensing agreement may be found at http://www.music-cog.ohio-state.edu/HumdrumDatabases/Palestrina/license.txt
!!!EMD: converted to Humdrum by Bret Aarden
